assets/resources/icons/services/Ambiental.svg

<svg width="50" height="50" viewBox="0 0 50 50" fill="none" xmlns="http://www.w3.org/2000/svg">
<path d="M15.1504 17.7H8.30042V32.3H15.1504L26.0504 43.2V6.80005L15.1504 17.7ZM23.9004 38.05L16.0504 30.2H10.4004V19.8H16.0004L23.9004 11.95V38.05ZM36.5004 13.55L31.7004 18.35L33.2004 19.85L38.0004 15.05L36.5004 13.55ZM34.9004 23.95V26.05H41.7004V23.95H34.9004ZM33.2004 30.1L31.7004 31.6L36.5004 36.4L38.0004 34.9L33.2004 30.1Z" fill="#876671"/>
</svg>

<?xml version="1.0" encoding="utf-8"?>
<!-- Generator: Adobe Illustrator 25.0.0, SVG Export Plug-In . SVG Version: 6.00 Build 0)  -->
<svg version="1.1" id="Capa_1" xmlns="http://www.w3.org/2000/svg" xmlns:xlink="http://www.w3.org/1999/xlink" x="0px" y="0px"
	 viewBox="0 0 50 50" style="enable-background:new 0 0 50 50;" xml:space="preserve">
<style type="text/css">
	.st0{fill:#A52016;}
</style>
<path class="st0" d="M15.2,17.7H8.3v14.6h6.8l10.9,10.9V6.8L15.2,17.7z M23.9,38l-7.9-7.8h-5.6V19.8H16l7.9-7.8V38z M36.5,13.6
	l-4.8,4.8l1.5,1.5l4.8-4.8L36.5,13.6z M34.9,24V26h6.8V24H34.9z M33.2,30.1l-1.5,1.5l4.8,4.8l1.5-1.5L33.2,30.1z"/>
</svg>
